X: 7495
T:Nanny O
M:C|
O:England
A:North-West
R:Reel
K:Em
GA|\
B2E2 B3A| G2E2 E2DE| G3A BABd| e2A2 A2GA|\
B2d2 cBAG| A2B2 g3f| e3d BABd| e2E2 E2::\
Bc|\
d3e edcB| g2d2 d2gf| e3f gfga| b2e2 e2dc| \
B2g2 dBAG| A2B2 g3f| eged BABd| e2E2 E2:|
